images/3233459.svg

<?xml version="1.0" encoding="UTF-8"?>
<svg xmlns="http://www.w3.org/2000/svg" xmlns:xlink="http://www.w3.org/1999/xlink" width="300pt" height="300pt" viewBox="0 0 300 300" version="1.1">
<defs>
<g>
<symbol overflow="visible" id="glyph0-0">
<path style="stroke:none;" d="M 0.453125 1.59375 L 0.453125 -6.34375 L 4.953125 -6.34375 L 4.953125 1.59375 Z M 0.953125 1.09375 L 4.453125 1.09375 L 4.453125 -5.84375 L 0.953125 -5.84375 Z M 0.953125 1.09375 "/>
</symbol>
<symbol overflow="visible" id="glyph0-1">
<path style="stroke:none;" d="M 3.546875 -5.953125 C 2.898438 -5.953125 2.382812 -5.710938 2 -5.234375 C 1.625 -4.753906 1.4375 -4.101562 1.4375 -3.28125 C 1.4375 -2.445312 1.625 -1.789062 2 -1.3125 C 2.382812 -0.832031 2.898438 -0.59375 3.546875 -0.59375 C 4.191406 -0.59375 4.703125 -0.832031 5.078125 -1.3125 C 5.453125 -1.789062 5.640625 -2.445312 5.640625 -3.28125 C 5.640625 -4.101562 5.453125 -4.753906 5.078125 -5.234375 C 4.703125 -5.710938 4.191406 -5.953125 3.546875 -5.953125 Z M 3.546875 -6.6875 C 4.460938 -6.6875 5.195312 -6.375 5.75 -5.75 C 6.300781 -5.132812 6.578125 -4.3125 6.578125 -3.28125 C 6.578125 -2.238281 6.300781 -1.410156 5.75 -0.796875 C 5.195312 -0.179688 4.460938 0.125 3.546875 0.125 C 2.617188 0.125 1.878906 -0.179688 1.328125 -0.796875 C 0.773438 -1.410156 0.5 -2.238281 0.5 -3.28125 C 0.5 -4.3125 0.773438 -5.132812 1.328125 -5.75 C 1.878906 -6.375 2.617188 -6.6875 3.546875 -6.6875 Z M 3.546875 -6.6875 "/>
</symbol>
<symbol overflow="visible" id="glyph0-2">
<path style="stroke:none;" d="M 0.890625 -6.5625 L 2.078125 -6.5625 L 4.984375 -1.078125 L 4.984375 -6.5625 L 5.84375 -6.5625 L 5.84375 0 L 4.65625 0 L 1.75 -5.484375 L 1.75 0 L 0.890625 0 Z M 0.890625 -6.5625 "/>
</symbol>
</g>
</defs>
<g id="surface34161">
<rect x="0" y="0" width="300" height="300" style="fill:rgb(100%,100%,100%);fill-opacity:1;stroke:none;"/>
<path style="fill:none;stroke-width:1.2;stroke-linecap:butt;stroke-linejoin:miter;stroke:rgb(0%,0%,0%);stroke-opacity:1;stroke-miterlimit:10;" d="M 144 205.640625 L 148.722656 197.753906 "/>
<path style="fill:none;stroke-width:1.2;stroke-linecap:butt;stroke-linejoin:miter;stroke:rgb(100%,0%,0%);stroke-opacity:1;stroke-miterlimit:10;" d="M 148.722656 197.753906 L 153.445312 189.867188 "/>
<path style="fill:none;stroke-width:1.2;stroke-linecap:butt;stroke-linejoin:miter;stroke:rgb(100%,0%,0%);stroke-opacity:1;stroke-miterlimit:10;" d="M 153.445312 189.867188 L 148.980469 181.835938 "/>
<path style="fill:none;stroke-width:1.2;stroke-linecap:butt;stroke-linejoin:miter;stroke:rgb(0%,0%,0%);stroke-opacity:1;stroke-miterlimit:10;" d="M 148.980469 181.835938 L 144.511719 173.804688 "/>
<path style=" stroke:none;fill-rule:nonzero;fill:rgb(100%,100%,100%);fill-opacity:1;" d="M 149.445312 184.367188 L 157.445312 184.367188 L 157.445312 195.367188 L 149.445312 195.367188 Z M 149.445312 184.367188 "/>
<g style="fill:rgb(100%,0%,0%);fill-opacity:1;">
  <use xlink:href="#glyph0-1" x="149.445312" y="193.030273"/>
</g>
<path style="fill:none;stroke-width:1.2;stroke-linecap:butt;stroke-linejoin:miter;stroke:rgb(0%,0%,0%);stroke-opacity:1;stroke-miterlimit:10;" d="M 144.511719 173.804688 L 153.957031 158.03125 "/>
<path style="fill:none;stroke-width:1.2;stroke-linecap:butt;stroke-linejoin:miter;stroke:rgb(0%,0%,0%);stroke-opacity:1;stroke-miterlimit:10;" d="M 153.957031 158.03125 L 149.488281 150 "/>
<path style="fill:none;stroke-width:1.2;stroke-linecap:butt;stroke-linejoin:miter;stroke:rgb(0%,0%,100%);stroke-opacity:1;stroke-miterlimit:10;" d="M 149.488281 150 L 145.023438 141.96875 "/>
<path style="fill:none;stroke-width:1.2;stroke-linecap:butt;stroke-linejoin:miter;stroke:rgb(0%,0%,100%);stroke-opacity:1;stroke-miterlimit:10;" d="M 145.023438 141.96875 L 149.746094 134.082031 "/>
<path style="fill:none;stroke-width:1.2;stroke-linecap:butt;stroke-linejoin:miter;stroke:rgb(0%,0%,0%);stroke-opacity:1;stroke-miterlimit:10;" d="M 149.746094 134.082031 L 154.46875 126.195312 "/>
<path style="fill:none;stroke-width:1.2;stroke-linecap:butt;stroke-linejoin:miter;stroke:rgb(0%,0%,0%);stroke-opacity:1;stroke-miterlimit:10;" d="M 126.640625 141.671875 L 135.832031 141.820312 "/>
<path style="fill:none;stroke-width:1.2;stroke-linecap:butt;stroke-linejoin:miter;stroke:rgb(0%,0%,100%);stroke-opacity:1;stroke-miterlimit:10;" d="M 135.832031 141.820312 L 145.023438 141.96875 "/>
<path style=" stroke:none;fill-rule:nonzero;fill:rgb(100%,100%,100%);fill-opacity:1;" d="M 142.023438 136.46875 L 149.023438 136.46875 L 149.023438 147.46875 L 142.023438 147.46875 Z M 142.023438 136.46875 "/>
<g style="fill:rgb(0%,0%,100%);fill-opacity:1;">
  <use xlink:href="#glyph0-2" x="142.023438" y="145.131836"/>
</g>
<path style="fill:none;stroke-width:1.2;stroke-linecap:butt;stroke-linejoin:miter;stroke:rgb(0%,0%,0%);stroke-opacity:1;stroke-miterlimit:10;" d="M 154.46875 126.195312 L 163.65625 126.34375 "/>
<path style="fill:none;stroke-width:1.2;stroke-linecap:butt;stroke-linejoin:miter;stroke:rgb(0%,0%,100%);stroke-opacity:1;stroke-miterlimit:10;" d="M 163.65625 126.34375 L 172.847656 126.492188 "/>
<path style="fill:none;stroke-width:1.2;stroke-linecap:butt;stroke-linejoin:miter;stroke:rgb(0%,0%,0%);stroke-opacity:1;stroke-miterlimit:10;" d="M 156.375 121.902344 L 163.726562 122.019531 "/>
<path style="fill:none;stroke-width:1.2;stroke-linecap:butt;stroke-linejoin:miter;stroke:rgb(0%,0%,100%);stroke-opacity:1;stroke-miterlimit:10;" d="M 163.726562 122.019531 L 171.078125 122.136719 "/>
<path style="fill:none;stroke-width:1.2;stroke-linecap:butt;stroke-linejoin:miter;stroke:rgb(0%,0%,0%);stroke-opacity:1;stroke-miterlimit:10;" d="M 145.53125 110.132812 L 154.46875 126.195312 "/>
<path style="fill:none;stroke-width:1.2;stroke-linecap:butt;stroke-linejoin:miter;stroke:rgb(0%,0%,100%);stroke-opacity:1;stroke-miterlimit:10;" d="M 172.847656 126.492188 L 177.570312 118.605469 "/>
<path style="fill:none;stroke-width:1.2;stroke-linecap:butt;stroke-linejoin:miter;stroke:rgb(0%,0%,0%);stroke-opacity:1;stroke-miterlimit:10;" d="M 177.570312 118.605469 L 182.292969 110.722656 "/>
<path style=" stroke:none;fill-rule:nonzero;fill:rgb(100%,100%,100%);fill-opacity:1;" d="M 169.847656 120.992188 L 176.847656 120.992188 L 176.847656 131.992188 L 169.847656 131.992188 Z M 169.847656 120.992188 "/>
<g style="fill:rgb(0%,0%,100%);fill-opacity:1;">
  <use xlink:href="#glyph0-2" x="169.847656" y="129.655273"/>
</g>
<path style="fill:none;stroke-width:1.2;stroke-linecap:butt;stroke-linejoin:miter;stroke:rgb(0%,0%,0%);stroke-opacity:1;stroke-miterlimit:10;" d="M 182.292969 110.722656 L 177.824219 102.6875 "/>
<path style="fill:none;stroke-width:1.2;stroke-linecap:butt;stroke-linejoin:miter;stroke:rgb(0%,0%,100%);stroke-opacity:1;stroke-miterlimit:10;" d="M 177.824219 102.6875 L 173.359375 94.65625 "/>
<path style="fill:none;stroke-width:1.2;stroke-linecap:butt;stroke-linejoin:miter;stroke:rgb(0%,0%,0%);stroke-opacity:1;stroke-miterlimit:10;" d="M 177.621094 111.214844 L 174.046875 104.789062 "/>
<path style="fill:none;stroke-width:1.2;stroke-linecap:butt;stroke-linejoin:miter;stroke:rgb(0%,0%,100%);stroke-opacity:1;stroke-miterlimit:10;" d="M 174.046875 104.789062 L 170.472656 98.363281 "/>
<path style="fill:none;stroke-width:1.2;stroke-linecap:butt;stroke-linejoin:miter;stroke:rgb(0%,0%,0%);stroke-opacity:1;stroke-miterlimit:10;" d="M 182.292969 110.722656 L 191.484375 110.867188 "/>
<path style="fill:none;stroke-width:1.2;stroke-linecap:butt;stroke-linejoin:miter;stroke:rgb(100%,0%,0%);stroke-opacity:1;stroke-miterlimit:10;" d="M 191.484375 110.867188 L 200.671875 111.015625 "/>
<path style="fill:none;stroke-width:1.2;stroke-linecap:butt;stroke-linejoin:miter;stroke:rgb(0%,0%,100%);stroke-opacity:1;stroke-miterlimit:10;" d="M 173.359375 94.65625 L 164.167969 94.507812 "/>
<path style="fill:none;stroke-width:1.2;stroke-linecap:butt;stroke-linejoin:miter;stroke:rgb(0%,0%,0%);stroke-opacity:1;stroke-miterlimit:10;" d="M 164.167969 94.507812 L 154.976562 94.359375 "/>
<path style=" stroke:none;fill-rule:nonzero;fill:rgb(100%,100%,100%);fill-opacity:1;" d="M 170.359375 89.15625 L 177.359375 89.15625 L 177.359375 100.15625 L 170.359375 100.15625 Z M 170.359375 89.15625 "/>
<g style="fill:rgb(0%,0%,100%);fill-opacity:1;">
  <use xlink:href="#glyph0-2" x="170.359375" y="97.819336"/>
</g>
<path style="fill:none;stroke-width:1.2;stroke-linecap:butt;stroke-linejoin:miter;stroke:rgb(0%,0%,0%);stroke-opacity:1;stroke-miterlimit:10;" d="M 154.976562 94.359375 L 145.53125 110.132812 "/>
<path style="fill:none;stroke-width:1.2;stroke-linecap:butt;stroke-linejoin:miter;stroke:rgb(0%,0%,0%);stroke-opacity:1;stroke-miterlimit:10;" d="M 157.742188 98.160156 L 150.1875 110.777344 "/>
<path style="fill:none;stroke-width:1.2;stroke-linecap:butt;stroke-linejoin:miter;stroke:rgb(0%,0%,0%);stroke-opacity:1;stroke-miterlimit:10;" d="M 145.53125 110.132812 L 136.34375 109.984375 "/>
<path style="fill:none;stroke-width:1.2;stroke-linecap:butt;stroke-linejoin:miter;stroke:rgb(0%,0%,100%);stroke-opacity:1;stroke-miterlimit:10;" d="M 136.34375 109.984375 L 127.152344 109.835938 "/>
<path style="fill:none;stroke-width:1.2;stroke-linecap:butt;stroke-linejoin:miter;stroke:rgb(0%,0%,100%);stroke-opacity:1;stroke-miterlimit:10;" d="M 127.152344 109.835938 L 122.429688 117.722656 "/>
<path style="fill:none;stroke-width:1.2;stroke-linecap:butt;stroke-linejoin:miter;stroke:rgb(0%,0%,0%);stroke-opacity:1;stroke-miterlimit:10;" d="M 122.429688 117.722656 L 117.707031 125.605469 "/>
<path style="fill:none;stroke-width:1.2;stroke-linecap:butt;stroke-linejoin:miter;stroke:rgb(0%,0%,100%);stroke-opacity:1;stroke-miterlimit:10;" d="M 129.917969 113.636719 L 126.140625 119.945312 "/>
<path style="fill:none;stroke-width:1.2;stroke-linecap:butt;stroke-linejoin:miter;stroke:rgb(0%,0%,0%);stroke-opacity:1;stroke-miterlimit:10;" d="M 126.140625 119.945312 L 122.363281 126.253906 "/>
<path style=" stroke:none;fill-rule:nonzero;fill:rgb(100%,100%,100%);fill-opacity:1;" d="M 124.152344 104.335938 L 131.152344 104.335938 L 131.152344 115.335938 L 124.152344 115.335938 Z M 124.152344 104.335938 "/>
<g style="fill:rgb(0%,0%,100%);fill-opacity:1;">
  <use xlink:href="#glyph0-2" x="124.152344" y="112.999023"/>
</g>
<path style="fill:none;stroke-width:1.2;stroke-linecap:butt;stroke-linejoin:miter;stroke:rgb(0%,0%,0%);stroke-opacity:1;stroke-miterlimit:10;" d="M 117.707031 125.605469 L 126.640625 141.671875 "/>
<path style="fill:none;stroke-width:1.2;stroke-linecap:butt;stroke-linejoin:miter;stroke:rgb(0%,0%,0%);stroke-opacity:1;stroke-miterlimit:10;" d="M 117.707031 125.605469 L 99.328125 125.3125 "/>
<path style="fill:none;stroke-width:1.2;stroke-linecap:butt;stroke-linejoin:miter;stroke:rgb(0%,0%,0%);stroke-opacity:1;stroke-miterlimit:10;" d="M 124.785156 140.5625 L 120.0625 148.445312 "/>
<path style="fill:none;stroke-width:1.2;stroke-linecap:butt;stroke-linejoin:miter;stroke:rgb(100%,0%,0%);stroke-opacity:1;stroke-miterlimit:10;" d="M 120.0625 148.445312 L 115.339844 156.332031 "/>
<path style="fill:none;stroke-width:1.2;stroke-linecap:butt;stroke-linejoin:miter;stroke:rgb(0%,0%,0%);stroke-opacity:1;stroke-miterlimit:10;" d="M 128.496094 142.785156 L 123.773438 150.667969 "/>
<path style="fill:none;stroke-width:1.2;stroke-linecap:butt;stroke-linejoin:miter;stroke:rgb(100%,0%,0%);stroke-opacity:1;stroke-miterlimit:10;" d="M 123.773438 150.667969 L 119.050781 158.554688 "/>
<path style=" stroke:none;fill-rule:nonzero;fill:rgb(100%,100%,100%);fill-opacity:1;" d="M 109.195312 151.941406 L 117.195312 151.941406 L 117.195312 162.941406 L 109.195312 162.941406 Z M 109.195312 151.941406 "/>
<g style="fill:rgb(100%,0%,0%);fill-opacity:1;">
  <use xlink:href="#glyph0-1" x="109.195312" y="160.604492"/>
</g>
<path style="fill:none;stroke-width:1.2;stroke-linecap:butt;stroke-linejoin:miter;stroke:rgb(0%,0%,0%);stroke-opacity:1;stroke-miterlimit:10;" d="M 99.328125 125.3125 L 90.390625 109.246094 "/>
<path style="fill:none;stroke-width:1.2;stroke-linecap:butt;stroke-linejoin:miter;stroke:rgb(0%,0%,0%);stroke-opacity:1;stroke-miterlimit:10;" d="M 94.652344 125.808594 L 87.503906 112.957031 "/>
<path style="fill:none;stroke-width:1.2;stroke-linecap:butt;stroke-linejoin:miter;stroke:rgb(0%,0%,0%);stroke-opacity:1;stroke-miterlimit:10;" d="M 89.878906 141.082031 L 99.328125 125.3125 "/>
<path style="fill:none;stroke-width:1.2;stroke-linecap:butt;stroke-linejoin:miter;stroke:rgb(0%,0%,0%);stroke-opacity:1;stroke-miterlimit:10;" d="M 90.390625 109.246094 L 72.011719 108.953125 "/>
<path style="fill:none;stroke-width:1.2;stroke-linecap:butt;stroke-linejoin:miter;stroke:rgb(0%,0%,0%);stroke-opacity:1;stroke-miterlimit:10;" d="M 72.011719 108.953125 L 62.566406 124.722656 "/>
<path style="fill:none;stroke-width:1.2;stroke-linecap:butt;stroke-linejoin:miter;stroke:rgb(0%,0%,0%);stroke-opacity:1;stroke-miterlimit:10;" d="M 74.777344 112.753906 L 67.21875 125.367188 "/>
<path style="fill:none;stroke-width:1.2;stroke-linecap:butt;stroke-linejoin:miter;stroke:rgb(0%,0%,0%);stroke-opacity:1;stroke-miterlimit:10;" d="M 62.566406 124.722656 L 71.5 140.789062 "/>
<path style="fill:none;stroke-width:1.2;stroke-linecap:butt;stroke-linejoin:miter;stroke:rgb(0%,0%,0%);stroke-opacity:1;stroke-miterlimit:10;" d="M 62.566406 124.722656 L 53.375 124.574219 "/>
<path style="fill:none;stroke-width:1.2;stroke-linecap:butt;stroke-linejoin:miter;stroke:rgb(100%,0%,0%);stroke-opacity:1;stroke-miterlimit:10;" d="M 53.375 124.574219 L 44.183594 124.429688 "/>
<path style="fill:none;stroke-width:1.2;stroke-linecap:butt;stroke-linejoin:miter;stroke:rgb(0%,0%,0%);stroke-opacity:1;stroke-miterlimit:10;" d="M 71.5 140.789062 L 89.878906 141.082031 "/>
<path style="fill:none;stroke-width:1.2;stroke-linecap:butt;stroke-linejoin:miter;stroke:rgb(0%,0%,0%);stroke-opacity:1;stroke-miterlimit:10;" d="M 73.40625 136.492188 L 88.113281 136.730469 "/>
<path style="fill:none;stroke-width:1.2;stroke-linecap:butt;stroke-linejoin:miter;stroke:rgb(100%,0%,0%);stroke-opacity:1;stroke-miterlimit:10;" d="M 44.183594 124.429688 L 39.71875 116.394531 "/>
<path style="fill:none;stroke-width:1.2;stroke-linecap:butt;stroke-linejoin:miter;stroke:rgb(0%,0%,0%);stroke-opacity:1;stroke-miterlimit:10;" d="M 39.71875 116.394531 L 35.25 108.363281 "/>
<path style=" stroke:none;fill-rule:nonzero;fill:rgb(100%,100%,100%);fill-opacity:1;" d="M 40.183594 118.929688 L 48.183594 118.929688 L 48.183594 129.929688 L 40.183594 129.929688 Z M 40.183594 118.929688 "/>
<g style="fill:rgb(100%,0%,0%);fill-opacity:1;">
  <use xlink:href="#glyph0-1" x="40.183594" y="127.592773"/>
</g>
<path style="fill:none;stroke-width:1.2;stroke-linecap:butt;stroke-linejoin:miter;stroke:rgb(100%,0%,0%);stroke-opacity:1;stroke-miterlimit:10;" d="M 200.671875 111.015625 L 205.140625 119.046875 "/>
<path style="fill:none;stroke-width:1.2;stroke-linecap:butt;stroke-linejoin:miter;stroke:rgb(0%,0%,0%);stroke-opacity:1;stroke-miterlimit:10;" d="M 205.140625 119.046875 L 209.609375 127.082031 "/>
<path style=" stroke:none;fill-rule:nonzero;fill:rgb(100%,100%,100%);fill-opacity:1;" d="M 196.671875 105.515625 L 204.671875 105.515625 L 204.671875 116.515625 L 196.671875 116.515625 Z M 196.671875 105.515625 "/>
<g style="fill:rgb(100%,0%,0%);fill-opacity:1;">
  <use xlink:href="#glyph0-1" x="196.671875" y="114.178711"/>
</g>
<path style="fill:none;stroke-width:1.2;stroke-linecap:butt;stroke-linejoin:miter;stroke:rgb(0%,0%,0%);stroke-opacity:1;stroke-miterlimit:10;" d="M 209.609375 127.082031 L 227.988281 127.375 "/>
<path style="fill:none;stroke-width:1.2;stroke-linecap:butt;stroke-linejoin:miter;stroke:rgb(0%,0%,0%);stroke-opacity:1;stroke-miterlimit:10;" d="M 227.988281 127.375 L 236.925781 143.441406 "/>
<path style="fill:none;stroke-width:1.2;stroke-linecap:butt;stroke-linejoin:miter;stroke:rgb(0%,0%,0%);stroke-opacity:1;stroke-miterlimit:10;" d="M 232.664062 126.878906 L 239.8125 139.730469 "/>
<path style="fill:none;stroke-width:1.2;stroke-linecap:butt;stroke-linejoin:miter;stroke:rgb(0%,0%,0%);stroke-opacity:1;stroke-miterlimit:10;" d="M 237.433594 111.605469 L 227.988281 127.375 "/>
<path style="fill:none;stroke-width:1.2;stroke-linecap:butt;stroke-linejoin:miter;stroke:rgb(0%,0%,0%);stroke-opacity:1;stroke-miterlimit:10;" d="M 236.925781 143.441406 L 255.304688 143.734375 "/>
<path style="fill:none;stroke-width:1.2;stroke-linecap:butt;stroke-linejoin:miter;stroke:rgb(0%,0%,0%);stroke-opacity:1;stroke-miterlimit:10;" d="M 255.304688 143.734375 L 264.75 127.964844 "/>
<path style="fill:none;stroke-width:1.2;stroke-linecap:butt;stroke-linejoin:miter;stroke:rgb(0%,0%,0%);stroke-opacity:1;stroke-miterlimit:10;" d="M 252.539062 139.9375 L 260.09375 127.320312 "/>
<path style="fill:none;stroke-width:1.2;stroke-linecap:butt;stroke-linejoin:miter;stroke:rgb(0%,0%,0%);stroke-opacity:1;stroke-miterlimit:10;" d="M 264.75 127.964844 L 255.816406 111.898438 "/>
<path style="fill:none;stroke-width:1.2;stroke-linecap:butt;stroke-linejoin:miter;stroke:rgb(0%,0%,0%);stroke-opacity:1;stroke-miterlimit:10;" d="M 255.816406 111.898438 L 237.433594 111.605469 "/>
<path style="fill:none;stroke-width:1.2;stroke-linecap:butt;stroke-linejoin:miter;stroke:rgb(0%,0%,0%);stroke-opacity:1;stroke-miterlimit:10;" d="M 253.90625 116.195312 L 239.203125 115.960938 "/>
</g>
</svg>

<svg xmlns="http://www.w3.org/2000/svg" xmlns:xlink="http://www.w3.org/1999/xlink" width="300pt" height="300pt" viewBox="0 0 300 300"><defs><symbol overflow="visible"><path d="M.453 1.594v-7.938h4.5v7.938zm.5-.5h3.5v-6.938h-3.5zm0 0"/></symbol><symbol overflow="visible" id="a"><path d="M3.547-5.953c-.65 0-1.164.242-1.547.72-.375.48-.563 1.13-.563 1.952 0 .835.188 1.49.563 1.967.383.48.898.72 1.547.72.644 0 1.156-.24 1.53-.72.376-.476.564-1.132.564-1.968 0-.822-.187-1.474-.562-1.954-.375-.477-.887-.72-1.53-.72zm0-.734c.914 0 1.648.312 2.203.937.55.617.828 1.438.828 2.47 0 1.042-.277 1.87-.828 2.483-.555.617-1.29.922-2.203.922-.93 0-1.668-.305-2.22-.922C.774-1.41.5-2.237.5-3.28c0-1.033.273-1.853.828-2.47.55-.625 1.29-.938 2.22-.938zm0 0"/></symbol><symbol overflow="visible" id="b"><path d="M.89-6.563H2.08l2.906 5.485v-5.484h.86V0H4.656L1.75-5.484V0H.89zm0 0"/></symbol></defs><g><path fill="#fff" d="M0 0h300v300H0z"/><path d="M144 205.64l4.723-7.886" stroke-width="1.2" stroke="#000" stroke-miterlimit="10" fill="none"/><path d="M148.723 197.754l4.722-7.887M153.445 189.867l-4.465-8.03" stroke-width="1.2" stroke="#f00" stroke-miterlimit="10" fill="none"/><path d="M148.98 181.836l-4.468-8.03" stroke-width="1.2" stroke="#000" stroke-miterlimit="10" fill="none"/><path d="M149.445 184.367h8v11h-8zm0 0" fill="#fff"/><use xlink:href="#a" x="149.445" y="193.03" fill="#f00"/><path d="M144.512 173.805l9.445-15.774M153.957 158.03l-4.47-8.03" stroke-width="1.2" stroke="#000" stroke-miterlimit="10" fill="none"/><path d="M149.488 150l-4.465-8.03M145.023 141.97l4.723-7.888" stroke-width="1.2" stroke="#00f" stroke-miterlimit="10" fill="none"/><path d="M149.746 134.082l4.723-7.887M126.64 141.672l9.192.148" stroke-width="1.2" stroke="#000" stroke-miterlimit="10" fill="none"/><path d="M135.832 141.82l9.19.15" stroke-width="1.2" stroke="#00f" stroke-miterlimit="10" fill="none"/><path d="M142.023 136.47h7v11h-7zm0 0" fill="#fff"/><use xlink:href="#b" x="142.023" y="145.132" fill="#00f"/><path d="M154.47 126.195l9.186.15" stroke-width="1.2" stroke="#000" stroke-miterlimit="10" fill="none"/><path d="M163.656 126.344l9.192.148" stroke-width="1.2" stroke="#00f" stroke-miterlimit="10" fill="none"/><path d="M156.375 121.902l7.352.118" stroke-width="1.2" stroke="#000" stroke-miterlimit="10" fill="none"/><path d="M163.727 122.02l7.35.117" stroke-width="1.2" stroke="#00f" stroke-miterlimit="10" fill="none"/><path d="M145.53 110.133l8.94 16.062" stroke-width="1.2" stroke="#000" stroke-miterlimit="10" fill="none"/><path d="M172.848 126.492l4.722-7.887" stroke-width="1.2" stroke="#00f" stroke-miterlimit="10" fill="none"/><path d="M177.57 118.605l4.723-7.882" stroke-width="1.2" stroke="#000" stroke-miterlimit="10" fill="none"/><path d="M169.848 120.992h7v11h-7zm0 0" fill="#fff"/><use xlink:href="#b" x="169.848" y="129.655" fill="#00f"/><path d="M182.293 110.723l-4.47-8.035" stroke-width="1.2" stroke="#000" stroke-miterlimit="10" fill="none"/><path d="M177.824 102.688l-4.465-8.032" stroke-width="1.2" stroke="#00f" stroke-miterlimit="10" fill="none"/><path d="M177.62 111.215l-3.573-6.426" stroke-width="1.2" stroke="#000" stroke-miterlimit="10" fill="none"/><path d="M174.047 104.79l-3.574-6.427" stroke-width="1.2" stroke="#00f" stroke-miterlimit="10" fill="none"/><path d="M182.293 110.723l9.19.144" stroke-width="1.2" stroke="#000" stroke-miterlimit="10" fill="none"/><path d="M191.484 110.867l9.188.15" stroke-width="1.2" stroke="#f00" stroke-miterlimit="10" fill="none"/><path d="M173.36 94.656l-9.192-.148" stroke-width="1.2" stroke="#00f" stroke-miterlimit="10" fill="none"/><path d="M164.168 94.508l-9.19-.15" stroke-width="1.2" stroke="#000" stroke-miterlimit="10" fill="none"/><path d="M170.36 89.156h7v11h-7zm0 0" fill="#fff"/><use xlink:href="#b" x="170.359" y="97.819" fill="#00f"/><path d="M154.977 94.36l-9.446 15.773M157.742 98.16l-7.554 12.617M145.53 110.133l-9.186-.15" stroke-width="1.2" stroke="#000" stroke-miterlimit="10" fill="none"/><path d="M136.344 109.984l-9.192-.148M127.152 109.836l-4.722 7.887" stroke-width="1.2" stroke="#00f" stroke-miterlimit="10" fill="none"/><path d="M122.43 117.723l-4.723 7.882" stroke-width="1.2" stroke="#000" stroke-miterlimit="10" fill="none"/><path d="M129.918 113.637l-3.777 6.308" stroke-width="1.2" stroke="#00f" stroke-miterlimit="10" fill="none"/><path d="M126.14 119.945l-3.777 6.31" stroke-width="1.2" stroke="#000" stroke-miterlimit="10" fill="none"/><path d="M124.152 104.336h7v11h-7zm0 0" fill="#fff"/><use xlink:href="#b" x="124.152" y="112.999" fill="#00f"/><path d="M117.707 125.605l8.934 16.067M117.707 125.605l-18.38-.293M124.785 140.563l-4.722 7.882" stroke-width="1.2" stroke="#000" stroke-miterlimit="10" fill="none"/><path d="M120.063 148.445l-4.723 7.887" stroke-width="1.2" stroke="#f00" stroke-miterlimit="10" fill="none"/><path d="M128.496 142.785l-4.723 7.883" stroke-width="1.2" stroke="#000" stroke-miterlimit="10" fill="none"/><path d="M123.773 150.668l-4.722 7.887" stroke-width="1.2" stroke="#f00" stroke-miterlimit="10" fill="none"/><path d="M109.195 151.94h8v11h-8zm0 0" fill="#fff"/><use xlink:href="#a" x="109.195" y="160.604" fill="#f00"/><path d="M99.328 125.313l-8.937-16.067M94.652 125.81l-7.148-12.853M89.88 141.082l9.448-15.77M90.39 109.246l-18.378-.293M72.012 108.953l-9.446 15.77M74.777 112.754l-7.558 12.613M62.566 124.723L71.5 140.79M62.566 124.723l-9.19-.15" stroke-width="1.2" stroke="#000" stroke-miterlimit="10" fill="none"/><path d="M53.375 124.574l-9.19-.144" stroke-width="1.2" stroke="#f00" stroke-miterlimit="10" fill="none"/><path d="M71.5 140.79l18.38.292M73.406 136.492l14.707.238" stroke-width="1.2" stroke="#000" stroke-miterlimit="10" fill="none"/><path d="M44.184 124.43l-4.465-8.035" stroke-width="1.2" stroke="#f00" stroke-miterlimit="10" fill="none"/><path d="M39.72 116.395l-4.47-8.032" stroke-width="1.2" stroke="#000" stroke-miterlimit="10" fill="none"/><path d="M40.184 118.93h8v11h-8zm0 0" fill="#fff"/><use xlink:href="#a" x="40.184" y="127.593" fill="#f00"/><path d="M200.672 111.016l4.47 8.03" stroke-width="1.2" stroke="#f00" stroke-miterlimit="10" fill="none"/><path d="M205.14 119.047l4.47 8.035" stroke-width="1.2" stroke="#000" stroke-miterlimit="10" fill="none"/><path d="M196.672 105.516h8v11h-8zm0 0" fill="#fff"/><use xlink:href="#a" x="196.672" y="114.179" fill="#f00"/><path d="M209.61 127.082l18.378.293M227.988 127.375l8.938 16.066M232.664 126.88l7.15 12.85M237.434 111.605l-9.446 15.77M236.926 143.44l18.38.294M255.305 143.734l9.445-15.77M252.54 139.938l7.554-12.618M264.75 127.965l-8.934-16.067M255.816 111.898l-18.382-.293M253.906 116.195l-14.703-.234" stroke-width="1.2" stroke="#000" stroke-miterlimit="10" fill="none"/></g></svg>
